X:32
T:Ein Bumlein stand im tiefen Tal...
B:Frau Nachtigall (Straburg - 1928)
Z:<anamnese@laposte.net> -- http://anamnese.fr.st
N:p.118
M:2/4
L:1/8
Q:1/8=130
K:A
E | E A A c | cB B2 | A/ B/ c/ d/ e c | B2 z A | A c c e | e d d d |
c c e c | B A B2 | A>G A c | B>A B e | c/ B/ A/ B/ c B | AA2 z2 |]
